X: 20551
T: When Sol had loos'd
%R: jig
B: James Oswald "The Caledonian Pocket Companion" v.2 p.55 #1
Z: 2019 John Chambers <jc:trillian.mit.edu>
M: 6/8
L: 1/8
K: G
|: "_Brisk"\
G2d ded | Tc2B ABc | d2G G2A | TB3 d3 ::\
BAB GAB | AGA D2D | D2G G2A | TB3 d3 :|
|:\
G2g dBd | (e/f/g)B A2g | dBG G2A | TB3 d3 ::\
(B/c/d)B GBG | (F/G/A)F D2(e/f/) | g2G G2A | TB3 d3 :|
|:\
G2g d2d' | c'2b abc' | d'2d g2a | b3 d'3 ::\
B2g G2g | A2a DFA | G2D G2A | TB3 d3 :|
|:\
G2g gfe | d2c Bcd | e2F G2A | TB3 d3 ::\
GBd (g2b) | FAd (f2a) | g2D G2A | TB3 d3 :|


